assets/logos/tiktok.svg

<svg width="80" height="80" viewBox="0 0 80 80" fill="none" xmlns="http://www.w3.org/2000/svg">
<path d="M33.7445 33.2007V30.7047C32.8784 30.5817 32.0045 30.5184 31.1298 30.5141C20.43 30.5141 11.7247 39.2208 11.7247 49.9206C11.7247 56.4841 15.005 62.2944 20.009 65.8079C16.6583 62.2247 14.7952 57.5016 14.7981 52.5958C14.7981 42.0481 23.2559 33.4467 33.7445 33.2007Z" fill="#00F2EA"/>
<path d="M34.2023 61.4573C38.9766 61.4573 42.8706 57.6593 43.0484 52.9263L43.0647 10.6751H50.7836C50.6187 9.79267 50.5355 8.8974 50.5348 8H39.9921L39.9743 50.2526C39.7987 54.9842 35.9026 58.7807 31.1297 58.7807C29.6968 58.7814 28.2853 58.4323 27.0181 57.7632C28.6785 60.0799 31.3523 61.4545 34.2023 61.4573ZM65.2018 25.0172V22.6692C62.3653 22.672 59.5891 21.8464 57.2148 20.2948C59.2969 22.6919 62.0979 24.3488 65.2018 25.0172Z" fill="#00F2EA"/>
<path d="M57.2149 20.2927C54.8881 17.6303 53.606 14.2135 53.6075 10.6773H50.783C51.5218 14.6267 53.8464 18.1018 57.2149 20.2927ZM31.1297 41.0567C26.2374 41.0623 22.2731 45.0267 22.2674 49.919C22.2702 53.2128 24.1005 56.2329 27.0181 57.7632C25.928 56.2599 25.34 54.4523 25.34 52.5956C25.345 47.7033 29.3093 43.7375 34.2024 43.7318C35.1154 43.7318 35.9908 43.8825 36.8171 44.1421V33.379C35.951 33.2559 35.077 33.1927 34.2024 33.1884C34.0488 33.1884 33.8967 33.1978 33.7445 33.2007L33.7452 41.467C32.899 41.1982 32.0172 41.0595 31.1297 41.0567Z" fill="#FF004F"/>
<path d="M65.2018 25.0172L65.2019 33.2112C59.7343 33.2112 54.6705 31.4626 50.5341 28.4945V49.9198C50.5341 60.6196 41.8303 69.3249 31.1304 69.3249C26.9954 69.3249 23.1606 68.0209 20.009 65.8079C23.6718 69.7581 28.8158 72.0014 34.2024 72C44.9022 72 53.6075 63.2948 53.6075 52.5963V31.171C57.8804 34.2437 63.0124 35.8941 68.2752 35.8877V25.3422C67.22 25.3422 66.1938 25.2277 65.2012 25.0151" fill="#FF004F"/>
<path d="M50.5341 49.9198V28.4945C54.8071 31.5678 59.9391 33.2176 65.2019 33.2112L65.2018 25.0172C62.0986 24.3481 59.2962 22.6905 57.2149 20.2927C53.8464 18.1018 51.5218 14.6267 50.783 10.6773H43.0642L43.0479 52.9284C42.8708 57.66 38.9766 61.4573 34.2023 61.4573C31.3523 61.4545 28.6785 60.0799 27.0181 57.7632C24.1005 56.2329 22.2702 53.2128 22.2674 49.919C22.2731 45.0267 26.2374 41.0623 31.1297 41.0567C32.0414 41.0567 32.9174 41.206 33.7452 41.467L33.7445 33.2007C23.2559 33.4467 14.7981 42.0481 14.7981 52.5958C14.7981 57.6965 16.7799 62.3399 20.009 65.8079C23.2644 68.0998 27.1497 69.3284 31.1304 69.3249C41.8303 69.3249 50.5341 60.6196 50.5341 49.9198Z" fill="black"/>
</svg>

<svg xmlns="http://www.w3.org/2000/svg" width="80" height="80" fill="none" viewBox="0 0 80 80"><path fill="#00f2ea" d="M33.745 33.2v-2.495a19 19 0 0 0-2.615-.19c-10.7 0-19.405 8.706-19.405 19.406 0 6.563 3.28 12.373 8.284 15.887a19.33 19.33 0 0 1-5.21-13.212c0-10.548 8.457-19.15 18.946-19.395"/><path fill="#00f2ea" d="M34.202 61.457c4.775 0 8.669-3.798 8.846-8.53l.017-42.252h7.719A14.6 14.6 0 0 1 50.534 8H39.993l-.018 42.253c-.175 4.731-4.071 8.528-8.844 8.528a8.8 8.8 0 0 1-4.112-1.018 8.85 8.85 0 0 0 7.184 3.694m31-36.44V22.67a14.6 14.6 0 0 1-7.987-2.374 14.67 14.67 0 0 0 7.987 4.722"/><path fill="#ff004f" d="M57.215 20.293a14.6 14.6 0 0 1-3.608-9.616h-2.824a14.7 14.7 0 0 0 6.432 9.616M31.13 41.057a8.87 8.87 0 0 0-8.863 8.862 8.87 8.87 0 0 0 4.751 7.844 8.8 8.8 0 0 1-1.678-5.167 8.873 8.873 0 0 1 8.862-8.864 8.7 8.7 0 0 1 2.615.41V33.38a19 19 0 0 0-2.615-.19c-.153 0-.305.009-.457.012v8.266a8.7 8.7 0 0 0-2.615-.41"/><path fill="#ff004f" d="M65.202 25.017v8.194a25.07 25.07 0 0 1-14.668-4.716V49.92c0 10.7-8.704 19.405-19.404 19.405-4.135 0-7.97-1.304-11.121-3.517A19.35 19.35 0 0 0 34.202 72c10.7 0 19.406-8.705 19.406-19.404V31.171a25.07 25.07 0 0 0 14.667 4.717V25.342a14.7 14.7 0 0 1-3.074-.327"/><path fill="#000" d="M50.534 49.92V28.494a25.07 25.07 0 0 0 14.668 4.717v-8.194a14.67 14.67 0 0 1-7.987-4.724 14.7 14.7 0 0 1-6.432-9.616h-7.719l-.016 42.251c-.177 4.732-4.071 8.53-8.846 8.53a8.85 8.85 0 0 1-7.184-3.695 8.87 8.87 0 0 1-4.75-7.844 8.87 8.87 0 0 1 8.862-8.862c.911 0 1.787.149 2.615.41v-8.266c-10.49.246-18.947 8.847-18.947 19.395 0 5.1 1.982 9.744 5.211 13.212a19.3 19.3 0 0 0 11.121 3.517c10.7 0 19.404-8.705 19.404-19.405"/></svg>
